packages/styles/assets/img/pv-images/redeem/encryption.svg

<svg xmlns="http://www.w3.org/2000/svg" viewBox="0 0 57 47" enable-background="new 0 0 57 47"><style type="text/css">.st0{fill:#6F6F6F;}</style><path class="st0" d="M15.8-15.2c0-.5 0-.9-.1-1.4.1.4.1.9.1 1.4zM52.9 0h-48.7c-2.3 0-4.2 1.9-4.2 4.1v38.8c0 2.3 1.9 4.1 4.2 4.1h48.6c2.3 0 4.2-1.9 4.2-4.1v-38.8c.1-2.3-1.9-4.1-4.1-4.1zm-34.9 4.2c1 0 1.8.8 1.8 1.8s-.8 1.8-1.8 1.8-1.8-.8-1.8-1.8.8-1.8 1.8-1.8zm-5.5 0c1 0 1.8.8 1.8 1.8s-.8 1.8-1.8 1.8-1.8-.8-1.8-1.8.8-1.8 1.8-1.8zm-5.5 0c1 0 1.8.8 1.8 1.8s-.8 1.8-1.8 1.8-1.8-.8-1.8-1.8.8-1.8 1.8-1.8zm46.2 38.7c0 .2-.1.3-.3.3h-48.7c-.2 0-.3-.1-.3-.3v-30.8h49.3v30.8zM21.5 37.7c.2.2.7.2.9 0l2.8-2.8c.2-.2.2-.6 0-.9l-6.5-6.4 6.5-6.4c.2-.2.2-.6 0-.9l-2.8-2.8c-.2-.2-.7-.2-.9 0l-9.7 9.6c-.2.2-.2.6 0 .9l9.7 9.7zM31.8 34.9l2.8 2.8c.2.2.7.2.9 0l9.8-9.6c.2-.2.2-.6 0-.9l-9.8-9.6c-.2-.2-.7-.2-.9 0l-2.8 2.8c-.2.2-.2.6 0 .9l6.5 6.4-6.5 6.3c-.2.3-.2.7 0 .9z"/></svg>

<?xml version="1.0" encoding="utf-8"?>
<!-- Generator: Adobe Illustrator 22.1.0, SVG Export Plug-In . SVG Version: 6.00 Build 0)  -->
<svg version="1.1" id="Layer_1" xmlns="http://www.w3.org/2000/svg" xmlns:xlink="http://www.w3.org/1999/xlink" x="0px" y="0px"
	 viewBox="0 0 57 47" style="enable-background:new 0 0 57 47;" xml:space="preserve">
<style type="text/css">
	.st0{fill:#6F6F6F;}
</style>
<path class="st0" d="M15.8-15.2c0-0.5,0-0.9-0.1-1.4C15.8-16.2,15.8-15.7,15.8-15.2L15.8-15.2z"/>
<g>
	<path class="st0" d="M52.9,0H4.2C1.9,0,0,1.9,0,4.1v38.8C0,45.2,1.9,47,4.2,47h48.6c2.3,0,4.2-1.9,4.2-4.1V4.1
		C57.1,1.8,55.1,0,52.9,0z M18,4.2c1,0,1.8,0.8,1.8,1.8c0,1-0.8,1.8-1.8,1.8c-1,0-1.8-0.8-1.8-1.8C16.2,5,17,4.2,18,4.2z M12.5,4.2
		c1,0,1.8,0.8,1.8,1.8c0,1-0.8,1.8-1.8,1.8c-1,0-1.8-0.8-1.8-1.8C10.7,5,11.5,4.2,12.5,4.2z M7,4.2c1,0,1.8,0.8,1.8,1.8
		c0,1-0.8,1.8-1.8,1.8c-1,0-1.8-0.8-1.8-1.8C5.2,5,6,4.2,7,4.2z M53.2,42.9c0,0.2-0.1,0.3-0.3,0.3H4.2c-0.2,0-0.3-0.1-0.3-0.3V12.1
		h49.3V42.9z"/>
	<path class="st0" d="M21.5,37.7c0.2,0.2,0.7,0.2,0.9,0l2.8-2.8c0.2-0.2,0.2-0.6,0-0.9l-6.5-6.4l6.5-6.4c0.2-0.2,0.2-0.6,0-0.9
		l-2.8-2.8c-0.2-0.2-0.7-0.2-0.9,0l-9.7,9.6c-0.2,0.2-0.2,0.6,0,0.9L21.5,37.7z"/>
	<path class="st0" d="M31.8,34.9l2.8,2.8c0.2,0.2,0.7,0.2,0.9,0l9.8-9.6c0.2-0.2,0.2-0.6,0-0.9l-9.8-9.6c-0.2-0.2-0.7-0.2-0.9,0
		l-2.8,2.8c-0.2,0.2-0.2,0.6,0,0.9l6.5,6.4L31.8,34C31.6,34.3,31.6,34.7,31.8,34.9z"/>
</g>
</svg>
